assets/icons/qvision/keyboard_voice.svg

<svg xmlns="http://www.w3.org/2000/svg" height="24" viewBox="0 0 24 24" width="24"><path d="M0 0h24v24H0z" fill="none"/><path d="M12 15c1.66 0 2.99-1.34 2.99-3L15 6c0-1.66-1.34-3-3-3S9 4.34 9 6v6c0 1.66 1.34 3 3 3zm5.3-3c0 3-2.54 5.1-5.3 5.1S6.7 15 6.7 12H5c0 3.42 2.72 6.23 6 6.72V22h2v-3.28c3.28-.48 6-3.3 6-6.72h-1.7z"/></svg>

<svg width="24" height="24" viewBox="0 0 24 24" fill="none" xmlns="http://www.w3.org/2000/svg">
<g clip-path="url(#clip0_147_3004)">
<path d="M12 15C13.66 15 14.99 13.66 14.99 12L15 6C15 4.34 13.66 3 12 3C10.34 3 9 4.34 9 6V12C9 13.66 10.34 15 12 15ZM17.3 12C17.3 15 14.76 17.1 12 17.1C9.24 17.1 6.7 15 6.7 12H5C5 15.42 7.72 18.23 11 18.72V22H13V18.72C16.28 18.24 19 15.42 19 12H17.3Z" fill="#323232"/>
</g>
<defs>
<clipPath id="clip0_147_3004">
<rect width="24" height="24" fill="white"/>
</clipPath>
</defs>
</svg>
